icons/anticlockwise-fill.svg

<svg viewBox="0 0 24 24" fill="currentColor" xmlns="http://www.w3.org/2000/svg">
    <path d="M6 10H9L5 15L1 10H4V8C4 5.23858 6.23858 3 9 3H13V5H9C7.34315 5 6 6.34315 6 8V10ZM11 9H21C21.5523 9 22 9.44772 22 10V20C22 20.5523 21.5523 21 21 21H11C10.4477 21 10 20.5523 10 20V10C10 9.44772 10.4477 9 11 9Z"/>
</svg>

<svg xmlns="http://www.w3.org/2000/svg" viewBox="0 0 24 24">
    <g>
        <path fill="none" d="M0 0h24v24H0z"/>
        <path d="M6 10h3l-4 5-4-5h3V8a5 5 0 0 1 5-5h4v2H9a3 3 0 0 0-3 3v2zm5-1h10a1 1 0 0 1 1 1v10a1 1 0 0 1-1 1H11a1 1 0 0 1-1-1V10a1 1 0 0 1 1-1z"/>
    </g>
</svg>
